!!!ONB: MCCC : IWM0409_01 : Extracted Monophonic Melody
!!!COM: Mozart, Wolfgang Amadeus
!!!OPR: Piano Sonata No.9
!!!OMV: 1
!!!SCT: K.311 ; K⁶.284c ; Op.4 No.2
!!!ODT: 1777///
**kern
*thru
*staff1
*>A
*clefG2
*k[f#c#]
*D:
*M4/4
*met(c)
*MM132
=1
4dd:
4r
16gg
16ff#
16ee
16ff#
16aa
16gg
16ff#
16gg
=2
4aa
4r
8aa
8bb
8ccc#
8ddd
=3
4aa
4ff#
16aa
16gg
16ff#
16gg
8aa
8gg
=4
4ff#
4r
16gg
16ff#
16ee
16ff#
16aa
16gg
16ff#
16gg
=5
4aa
4r
8aa
8bb
8ccc#
8ddd
=6
4aa
4ff#
16aa
16gg
16ff#
16gg
16aa
16gg
16ff#
16ee
=7
8dd
8r
8a
8r
4.ff#
16ee
16dd
=8
8cc#
8r
8a
8r
8ee
8r
4r
=9
8ee
8r
8a
8r
4.gg
16ff#
16ee
=10
8dd
8r
8a
8r
8ff#
8r
4r
=11
16ff#
16dd
16ee
16ff#
16gg
16aa
16bb
16ccc#
16ddd
16ccc#
16bb
16aa
16gg
16ff#
16ee
16dd
=12
16ee
16ff#
16ee
16dd#
16ee
16ff#
16gg
16aa
16bb
16aa
16gg
16ff#
16ee
16dd
16cc#
16b
=13
16cc#
16dd
16cc#
16a
8dd
8r
16gg
16aa
16gg
16ee
16gg
16ff#
16ee
16dd
=14
16cc#
16dd
16cc#
16a
8dd
8r
16gg
16aa
16gg
16ee
16gg
16ff#
16ee
16dd
=15
16cc#
16ee
16cc#
16a
16ff#
16aa
16ff#
16dd
16cc#
16ee
16cc#
16a
16ff#
16aa
16ff#
16dd
=16
8ee
8aa
8aa
8aa
4aa
16cc#
16b
16cc#
16dd
=17
8dd#
8ee
8r
8ee
8aa
8gg#
8ff#
8ee
=18
8cc#
8dd
8r
8dd
8ee
8dd
8cc#
8b
=19
8g#
8a
8r
8b
8b#
8cc#
8r
16ee
16dd
=20
4.cc#
16dd
16cc#
8b
8cc#
8dd
8dd#
=21
8dd#
8ee
8r
8ee
8aa
8gg#
8ff#
8ee
=22
8cc#
8dd
8r
8dd
8ee
8dd
8cc#
8b
=23
8.cc#
16a
8.f#
16b
4a
4g#
=24
16a
16ee
16dd#
16ee
16ff#
16ee
16dd#
16ee
16dd
16ee
16dd
16ee
16dd
16ee
16dd
16ee
=25
16cc#
16ee
16dd#
16ee
16ff#
16ee
16dd#
16ee
16dd
16ee
16dd
16ee
16dd
16ee
16dd
16ee
=26
4cc#
8r
8aa
8bb
8aa
8gg#
8ee
=27
4aa
8r
8AA
8BB
8AA
8GG#
8EE
=28
4AA
4ee
4dd
4cc#
=29
8.ff#
48gg#
48ff#
48ee
8ff#
8gg#
8bb
8aa
8gg#
8ff#
=30
8ee
8r
4ee
4dd
4cc#
=31
8.b
16ff#
16ee
16dd
16cc#
16b
4a
4b
=32
8a
8r
4ee
4dd
4cc#
=33
8.ff#
48gg#
48ff#
48ee
8ff#
8gg#
8bb
8aa
8gg#
8ff#
=34
8ee
8r
4ee
4dd
4cc#
=35
8.b
16ff#
16ee
16dd
16cc#
16b
4a
4b
=36
16a
16e
16a
16cc#
16ee
16cc#
16dd
16b
16a
16e
16a
16cc#
16ee
16cc#
16dd
16b
=37
4a
4gg#
4aa
4r
=38
8dd
8cc#
8cc#
8b
8b
8a
8a
8g#
=39
2g#
4a
4r
=40
*>A
4dd:
4r
16gg
16ff#
16ee
16ff#
16aa
16gg
16ff#
16gg
=41
4aa
4r
8aa
8bb
8ccc#
8ddd
=42
4aa
4ff#
16aa
16gg
16ff#
16gg
8aa
8gg
=43
4ff#
4r
16gg
16ff#
16ee
16ff#
16aa
16gg
16ff#
16gg
=44
4aa
4r
8aa
8bb
8ccc#
8ddd
=45
4aa
4ff#
16aa
16gg
16ff#
16gg
16aa
16gg
16ff#
16ee
=46
8dd
8r
8a
8r
4.ff#
16ee
16dd
=47
8cc#
8r
8a
8r
8ee
8r
4r
=48
8ee
8r
8a
8r
4.gg
16ff#
16ee
=49
8dd
8r
8a
8r
8ff#
8r
4r
=50
16ff#
16dd
16ee
16ff#
16gg
16aa
16bb
16ccc#
16ddd
16ccc#
16bb
16aa
16gg
16ff#
16ee
16dd
=51
16ee
16ff#
16ee
16dd#
16ee
16ff#
16gg
16aa
16bb
16aa
16gg
16ff#
16ee
16dd
16cc#
16b
=52
16cc#
16dd
16cc#
16a
8dd
8r
16gg
16aa
16gg
16ee
16gg
16ff#
16ee
16dd
=53
16cc#
16dd
16cc#
16a
8dd
8r
16gg
16aa
16gg
16ee
16gg
16ff#
16ee
16dd
=54
16cc#
16ee
16cc#
16a
16ff#
16aa
16ff#
16dd
16cc#
16ee
16cc#
16a
16ff#
16aa
16ff#
16dd
=55
8ee
8aa
8aa
8aa
4aa
16cc#
16b
16cc#
16dd
=56
8dd#
8ee
8r
8ee
8aa
8gg#
8ff#
8ee
=57
8cc#
8dd
8r
8dd
8ee
8dd
8cc#
8b
=58
8g#
8a
8r
8b
8b#
8cc#
8r
16ee
16dd
=59
4.cc#
16dd
16cc#
8b
8cc#
8dd
8dd#
=60
8dd#
8ee
8r
8ee
8aa
8gg#
8ff#
8ee
=61
8cc#
8dd
8r
8dd
8ee
8dd
8cc#
8b
=62
8.cc#
16a
8.f#
16b
4a
4g#
=63
16a
16ee
16dd#
16ee
16ff#
16ee
16dd#
16ee
16dd
16ee
16dd
16ee
16dd
16ee
16dd
16ee
=64
16cc#
16ee
16dd#
16ee
16ff#
16ee
16dd#
16ee
16dd
16ee
16dd
16ee
16dd
16ee
16dd
16ee
=65
4cc#
8r
8aa
8bb
8aa
8gg#
8ee
=66
4aa
8r
8AA
8BB
8AA
8GG#
8EE
=67
4AA
4ee
4dd
4cc#
=68
8.ff#
48gg#
48ff#
48ee
8ff#
8gg#
8bb
8aa
8gg#
8ff#
=69
8ee
8r
4ee
4dd
4cc#
=70
8.b
16ff#
16ee
16dd
16cc#
16b
4a
4b
=71
8a
8r
4ee
4dd
4cc#
=72
8.ff#
48gg#
48ff#
48ee
8ff#
8gg#
8bb
8aa
8gg#
8ff#
=73
8ee
8r
4ee
4dd
4cc#
=74
8.b
16ff#
16ee
16dd
16cc#
16b
4a
4b
=75
16a
16e
16a
16cc#
16ee
16cc#
16dd
16b
16a
16e
16a
16cc#
16ee
16cc#
16dd
16b
=76
4a
4gg#
4aa
4r
=77
8dd
8cc#
8cc#
8b
8b
8a
8a
8g#
=78
2g#
4a
4r
=79
*>B
8aa
8gg
8gg
8ff#
8ff#
8ee
8ee
8dd#
=80
1dd#
=81
8dd#
8ee
8r
8gg
8ee#
8ff#
8r
8aa
=82
2ff#
4gg
4r
=83
8gg
8ff#
8ff#
8ee
8ee
8dd
8dd
8cc#
=84
1cc#
=85
8cc#
8dd
8r
8ff#
8dd#
8ee
8r
8gg
=86
2ee
4ff#
4r
=87
16ff#
16ddd
16ff#
16ddd
16ff#
16ddd
16ff#
16ddd
16ff#
16ddd
16ff#
16ddd
16ff#
16ddd
16ff#
16ddd
=88
16ee
16ddd
16ee
16ddd
16ee
16ddd
16ee
16ddd
16ee
16ccc#
16ee
16ccc#
16ee
16ccc#
16ee
16ccc#
=89
16dd
16ccc#
16dd
16ccc#
16dd
16ccc#
16dd
16ccc#
16dd
16bb
16dd
16bb
16dd
16bb
16dd
16bb
=90
16cc#
16bb
16cc#
16bb
16cc#
16bb
16cc#
16bb
16cc
16aa
16cc
16aa
16cc
16aa
16cc
16aa
=91
8aa
8gg
8gg
8ff#
8ddd
8ccc#
8ccc#
8bb
=92
2aa#
2bb
=93
8ee
8dd
8dd
8cc#
8cc#
8b
8b
8a#
=94
2a#
4b
4r
=95
2b
4cc
4r
=96
4.dd
8dd#
4ee
4r
=97
4r
4dd
4cc
4b
=98
8.ee
48ff#
48ee
48dd
8ee
8ff#
8aa
8gg
8ff#
8ee
=99
8dd
8r
4dd
4cc
4b
=100
8.a
16ee
16dd
16cc
16b
16a
4g
4a
=101
8g
8r
4dd
4cc
4b
=102
8.ee
48ff#
48ee
48dd
8ee
8ff#
8aa
8gg
8ff#
8ee
=103
8dd
8r
4dd
4cc
4b
=104
8.a
16ee
16dd
16cc
16b
16a
4g
4a
=105
16g
16a
16g
16f#
16g
16b
16a
16cc
16b
16a
16g
16f#
16g
16b
16a
16cc
=106
16b
16a
16g
16f#
16g
16b
16a
16cc
16b
16dd
16cc
16a
16b
16dd
16cc#
16ee
=107
16dd
16ee
16dd
16cc#
16dd
16ff#
16ee
16gg
16ff#
16ee
16dd
16cc#
16dd
16ff#
16ee
16gg
=108
16ff#
16ee
16dd
16cc#
16dd
16ee
16ff#
16aa
16gg
16ff#
16ee
16dd#
16ee
16ff#
16gg
16aa
=109
16gg
16ff#
16ee
16dd#
16ee
16ff#
16gg
16bb
16aa
16gg
16ff#
16ee
16ff#
16gg
16aa
16bb
=110
16aa
16gg
16ff#
16ee
16ff#
16gg
16aa
16ccc
16bb
16ddd
16aa
16ddd
16bb
16ddd
16ff#
16bb
=111
16gg
16bb
16ff#
16bb
16gg
16bb
16ee
16aa
16ff#
16aa
16ee
16aa
16ff#
16aa
16cc#
16ff#
=112
16dd
16ff#
16cc#
16ff#
16dd
16ff#
16dd#
16ff#
16ee
16dd#
16ee
16ff#
16gg
16ff#
16gg
16aa
=113
16bb
16ccc#
16ddd
16ccc#
16bb
16aa
16gg
16ff#
16ee
16ff#
16gg
16ff#
16ee
16dd
16cc#
16b
=114
16cc#
16dd
16cc#
16a
8dd
8r
16gg
16aa
16gg
16ee
16gg
16ff#
16ee
16dd
=115
16cc#
16dd
16cc#
16a
8dd
8r
16gg
16aa
16gg
16ee
16gg
16ff#
16ee
16dd
=116
16cc#
16ee
16cc#
16a
16ff#
16aa
16ff#
16dd
16cc#
16ee
16cc#
16a
16ff#
16aa
16ff#
16dd
=117
8ee
8aa
8aa
8aa
4aa
16ff#
16ee
16ff#
16gg
=118
8gg#
8aa
8r
8aa
8ddd
8ccc#
8bb
8aa
=119
8ff#
8gg
8r
8gg
8aa
8gg
8ff#
8ee
=120
8cc#
8dd
8r
8ee
8ee#
8ff#
8r
16aa
16gg
=121
4.ff#
16gg
16ff#
8ee
8ff#
8gg
8gg#
=122
8gg#
8aa
8r
8aa
8ddd
8ccc
8bb-
8aa
=123
8ff#
8gg
8r
8gg
8aa
8gg
8ff
8ee
=124
8gg
8ff
8r
8ee
8cc#
8dd
8r
8gg#
=125
2gg#
8aa
8r
4r
=126
16ff#
16aa
16gg#
16aa
16bb
16aa
16gg#
16aa
16gg
16aa
16gg
16aa
16gg
16aa
16gg
16aa
=127
16ff#
16aa
16gg#
16aa
16bb
16aa
16gg#
16aa
16gg
16aa
16gg
16aa
16gg
16aa
16gg
16aa
=128
4ff#
8r
8ddd
8eee
8ddd
8ccc#
8aa
=129
4ddd
8r
8D
8E
8D
8C#
8AA
=130
4D
4aa
4gg
4ff#
=131
8.bb
48ccc#
48bb
48aa
8bb
8ccc#
8eee
8ddd
8ccc#
8bb
=132
8aa
8r
4aa
4gg
4ff#
=133
8.ee
16bb
16aa
16gg
16ff#
16ee
4dd
4ee
=134
8dd
8r
4a
4g
4f#
=135
8.b
48cc#
48b
48a
8b
8cc#
8ee
8dd
8cc#
8b
=136
8a
8r
4aa
4gg
4ff#
=137
8.ee
16bb
16aa
16gg
16ff#
16ee
4dd
4ee
=138
4dd
4r
16gg
16ff#
16ee
16ff#
16aa
16gg
16ff#
16gg
=139
4aa
4r
8aa
8bb
8ccc#
8ddd
=140
4aa
4ff#
16aa
16gg
16ff#
16gg
8aa
8gg
=141
4ff#
4r
16gg
16ff#
16ee
16ff#
16aa
16gg
16ff#
16gg
=142
4aa
4r
8aa
8bb
8ccc#
8ddd
=143
4aa
4ff#
16aa
16gg
16ff#
16gg
16aa
16gg
16ff#
16ee
=144
16dd
16ee
16ff#
16gg
16aa
16bb
16ccc#
16ddd
4ddd
8bb
16r
16gg
=145
4ff#
8aa
16r
16dd
4ee
8gg
16r
16cc#
=146
16dd
16ee
16ff#
16gg
16aa
16bb
16ccc#
16ddd
16eee
16ddd
16ccc#
16ddd
16ccc#
16bb
16aa
16gg
=147
16ff#
16gg
16gg#
16aa
16gg
16ff#
16ee
16dd
16dd#
16ee
16ff#
16gg
16ff#
16ee
16dd
16cc#
=148
16dd
16a
16dd
16ff#
16aa
16ff#
16gg
16ee
16dd
16a
16dd
16ff#
16aa
16ff#
16gg
16ee
=149
4dd
4ccc#:
4ddd:
4r
=150
8gg
8ff#
8ff#
8ee
8ee
8dd
8dd
8cc#
=151
2cc#
4dd
4r
==
*-
